(Time Created: 11-29-2016 16:10:08)
(Post: Sandia Object GCode Generator)
(5-Axis CNC Scanning Machine)
N00001 G90				;	G90 -> Abs; G91-> Rel
N00002 G00 X0.000 Y0.000 Z0.000		;	Move to Initial Position
N00003 G04 P1				;	Dwell 1 (milli)seconds
N00004 G90				;	Begin Operation
N00005 G01 X0.000000 Y0.000000 F40.000000
N00007 G04 P1				;	Dwell 1 (milli)seconds
N00010 G01 X0.270250 Y0.000000 F40.000000
N00012 G04 P1				;	Dwell 1 (milli)seconds
N00015 G01 X0.555000 Y0.000000 F40.000000
N00017 G04 P1				;	Dwell 1 (milli)seconds
N00020 G01 X0.853500 Y0.000000 F40.000000
N00022 G04 P1				;	Dwell 1 (milli)seconds
N00025 G01 X1.165000 Y0.000000 F40.000000
N00027 G04 P1				;	Dwell 1 (milli)seconds
N00030 G01 X1.488750 Y0.000000 F40.000000
N00032 G04 P1				;	Dwell 1 (milli)seconds
N00035 G01 X1.823500 Y0.000000 F40.000000
N00037 G04 P1				;	Dwell 1 (milli)seconds
N00040 G01 X2.168500 Y0.000000 F40.000000
N00042 G04 P1				;	Dwell 1 (milli)seconds
N00045 G01 X2.523000 Y0.000000 F40.000000
N00047 G04 P1				;	Dwell 1 (milli)seconds
N00050 G01 X8.624000 Y0.000000 F40.000000
N00052 G04 P1				;	Dwell 1 (milli)seconds
N00055 G01 X8.978500 Y0.000000 F40.000000
N00057 G04 P1				;	Dwell 1 (milli)seconds
N00060 G01 X9.323500 Y0.000000 F40.000000
N00062 G04 P1				;	Dwell 1 (milli)seconds
N00065 G01 X9.658250 Y0.000000 F40.000000
N00067 G04 P1				;	Dwell 1 (milli)seconds
N00070 G01 X9.982000 Y0.000000 F40.000000
N00072 G04 P1				;	Dwell 1 (milli)seconds
N00075 G01 X10.293500 Y0.000000 F40.000000
N00077 G04 P1				;	Dwell 1 (milli)seconds
N00080 G01 X10.592000 Y0.000000 F40.000000
N00082 G04 P1				;	Dwell 1 (milli)seconds
N00085 G01 X10.876750 Y0.000000 F40.000000
N00087 G04 P1				;	Dwell 1 (milli)seconds
N00090 G01 X11.147000 Y0.000000 F40.000000
N00092 G04 P1				;	Dwell 1 (milli)seconds
N00095 G01 X11.147000 Y12.500000 F40.000000
N00097 G04 P1				;	Dwell 1 (milli)seconds
N00100 G01 X10.876750 Y12.500000 F40.000000
N00102 G04 P1				;	Dwell 1 (milli)seconds
N00105 G01 X10.592000 Y12.500000 F40.000000
N00107 G04 P1				;	Dwell 1 (milli)seconds
N00110 G01 X10.293500 Y12.500000 F40.000000
N00112 G04 P1				;	Dwell 1 (milli)seconds
N00115 G01 X9.982000 Y12.500000 F40.000000
N00117 G04 P1				;	Dwell 1 (milli)seconds
N00120 G01 X9.658250 Y12.500000 F40.000000
N00122 G04 P1				;	Dwell 1 (milli)seconds
N00125 G01 X9.323500 Y12.500000 F40.000000
N00127 G04 P1				;	Dwell 1 (milli)seconds
N00130 G01 X8.978500 Y12.500000 F40.000000
N00132 G04 P1				;	Dwell 1 (milli)seconds
N00135 G01 X8.624000 Y12.500000 F40.000000
N00137 G04 P1				;	Dwell 1 (milli)seconds
N00140 G01 X2.523000 Y12.500000 F40.000000
N00142 G04 P1				;	Dwell 1 (milli)seconds
N00145 G01 X2.168500 Y12.500000 F40.000000
N00147 G04 P1				;	Dwell 1 (milli)seconds
N00150 G01 X1.823500 Y12.500000 F40.000000
N00152 G04 P1				;	Dwell 1 (milli)seconds
N00155 G01 X1.488750 Y12.500000 F40.000000
N00157 G04 P1				;	Dwell 1 (milli)seconds
N00160 G01 X1.165000 Y12.500000 F40.000000
N00162 G04 P1				;	Dwell 1 (milli)seconds
N00165 G01 X0.853500 Y12.500000 F40.000000
N00167 G04 P1				;	Dwell 1 (milli)seconds
N00170 G01 X0.555000 Y12.500000 F40.000000
N00172 G04 P1				;	Dwell 1 (milli)seconds
N00175 G01 X0.270250 Y12.500000 F40.000000
N00177 G04 P1				;	Dwell 1 (milli)seconds
N00180 G01 X0.000000 Y12.500000 F40.000000
N00182 G04 P1				;	Dwell 1 (milli)seconds
N00185 G01 X0.000000 Y12.500000 F40.000000
N00187 G04 P1				;	Dwell 1 (milli)seconds
N00190 G00 X0.000 Y0.000 Z0.000		;	Move back to Initial Position
N00191
N00192 M30				;	End of GCode file